!!! OTL: Berkowitz249
!!! Chapter: 1
!!! Section: II
!!! Page: 57
!!! Mode: 
!!! Encoder: DJB
**kern
*staff1
*I"Piano
=1-
*clefC3
*k[f#]
*G:
*met(c|)
*M2/2
[2b\
8b\]
4a\
8b\
=2
4d\
4e\
4g\
4b\
=3
[2a\
8a\]
4f#\
8e\
=4
4f#\
4d\
4e\
4g\
=5
[2b\
8b\]
4a\
8b\
=6
4d\
4e\
4g\
4b\
=7
8cc\
4b\
8cc\
4dd\
4d\
=8
4e\
2cc\
4b\
=9
!!linebreak:original
4a\
4b\
4d\
4e\
=10
[2g\
8g\]
4e\
8d\
=11
1g
==
*-
